<?xml version="1.0" encoding="UTF-8"?>
<map version="1.10" tiledversion="1.11.1-99-gec89c545" orientation="orthogonal" renderorder="right-down" width="15" height="10" tilewidth="32" tileheight="32" infinite="0" nextlayerid="5" nextobjectid="1">
 <tileset firstgid="1" source="Spaceship-tileset.tsx"/>
 <tileset firstgid="101" source="Space station._32_2-space-light-shadow-blood.tsx"/>
 <tileset firstgid="1529" source="Space station._32_2-objects.tsx"/>
 <tileset firstgid="2957" source="units.tsx"/>
 <layer id="1" name="Floor" width="15" height="10">
  <data encoding="csv">
0,0,0,0,0,0,0,0,0,0,0,0,0,0,0,
0,4,1,1,1,1,1,8,1,1,1,1,1,5,0,
0,2,12,13,11,13,12,2,13,13,12,13,13,2,0,
0,2,23,23,23,23,23,19,23,23,23,23,23,2,0,
0,2,26,26,26,26,26,12,26,26,26,26,26,2,0,
0,2,26,26,26,26,26,26,26,26,26,26,26,2,0,
0,2,26,26,26,26,26,26,26,26,26,26,26,2,0,
0,2,26,26,26,26,26,26,26,26,26,26,26,2,0,
0,6,1,1,1,1,1,1,1,1,1,1,1,7,0,
0,71,72,73,74,75,78,71,72,73,74,75,78,75,0
</data>
 </layer>
 <layer id="2" name="Objects" width="15" height="10">
  <data encoding="csv">
0,0,0,0,0,0,0,0,0,0,0,0,0,0,0,
0,0,0,0,0,0,0,0,0,0,0,0,0,0,0,
0,0,0,0,0,0,0,0,0,0,0,0,0,0,0,
0,0,0,0,0,0,0,0,0,1795,1796,1797,0,0,0,
0,0,2550,0,0,0,0,0,0,1837,1838,1839,0,0,0,
0,0,2592,2593,0,0,0,1779,0,0,0,0,0,0,0,
0,0,0,0,0,0,0,1821,0,0,0,0,0,0,0,
0,0,0,0,0,0,0,1863,0,0,0,0,0,0,0,
0,0,0,0,0,0,0,0,0,0,0,0,0,0,0,
0,0,0,0,0,0,0,0,0,0,0,0,0,0,0
</data>
 </layer>
 <layer id="3" name="Blood and shadows" width="15" height="10">
  <data encoding="csv">
128,101,103,128,101,144,127,146,105,102,118,119,162,250,160,
103,0,0,0,0,0,0,0,0,0,0,0,0,0,145,
102,0,0,0,0,2249,2251,230,0,0,0,0,0,0,101,
258,0,0,1069,1070,2291,2293,0,0,0,0,0,0,0,164,
119,0,2469,1111,1112,0,1951,0,1951,440,0,0,0,0,146,
121,0,0,0,1154,1155,0,2511,0,0,0,0,0,0,118,
174,0,0,0,1196,1197,0,0,0,0,0,0,0,0,119,
259,0,0,0,0,0,1951,0,1951,0,2379,690,0,0,118,
253,0,0,0,0,0,0,0,0,0,0,0,0,0,250,
172,0,0,0,0,0,0,0,0,0,0,0,0,0,165
</data>
 </layer>
 <layer id="4" name="Units" width="15" height="10">
  <data encoding="csv">
0,0,0,0,0,0,0,0,0,0,0,0,0,0,0,
0,0,0,0,0,0,0,0,0,0,0,0,0,0,0,
0,0,0,0,0,0,0,0,0,0,0,0,0,0,0,
0,0,0,0,0,0,0,0,0,0,0,0,0,0,0,
0,0,0,0,0,0,0,0,0,0,0,0,0,0,0,
0,0,0,0,0,0,0,0,0,0,0,0,0,0,0,
0,0,0,2961,2960,0,0,0,0,0,2957,0,0,0,0,
0,0,0,2961,0,0,0,0,0,0,0,2958,0,0,0,
0,0,0,0,0,0,0,0,0,0,0,0,0,0,0,
0,0,0,0,0,0,0,0,0,0,0,0,0,0,0
</data>
 </layer>
</map>
