<?xml version="1.0" encoding="UTF-8"?>
<map version="1.10" tiledversion="1.11.1-99-gec89c545" orientation="orthogonal" renderorder="right-down" width="30" height="30" tilewidth="32" tileheight="32" infinite="0" nextlayerid="5" nextobjectid="1">
 <tileset firstgid="1" source="Spaceship-tileset.tsx"/>
 <tileset firstgid="101" source="Space station._32_2-objects.tsx"/>
 <tileset firstgid="1529" source="Space station._32_2-space-light-shadow-blood.tsx"/>
 <tileset firstgid="2957" source="units.tsx"/>
 <layer id="1" name="Floor" width="30" height="30">
  <data encoding="csv">
0,0,0,0,0,0,0,0,0,0,0,0,0,0,0,0,0,0,0,0,0,0,0,0,0,0,0,0,0,0,
0,4,1,1,1,1,1,1,1,1,1,1,1,1,1,1,1,1,1,1,1,1,1,1,1,1,1,1,5,0,
0,2,13,12,13,13,13,12,13,13,13,12,13,13,13,12,13,13,13,12,13,13,13,12,13,13,13,12,2,0,
0,2,35,35,35,35,35,35,35,35,35,35,35,35,35,35,35,35,35,35,35,35,35,35,35,35,35,35,2,0,
0,2,35,35,35,35,35,35,35,35,35,35,35,35,35,35,35,35,35,35,35,35,35,35,35,35,35,35,2,0,
0,2,35,35,35,35,35,35,35,35,35,35,35,35,35,35,35,35,35,35,35,35,35,35,35,35,35,35,2,0,
0,2,35,35,35,35,35,35,35,35,35,35,35,35,35,35,35,35,35,35,35,35,35,35,35,35,35,35,2,0,
0,2,35,35,35,35,35,35,35,35,35,35,35,35,35,35,35,35,35,35,35,35,35,35,35,35,35,35,2,0,
0,2,35,35,35,35,35,35,35,35,35,35,35,35,35,35,35,35,35,35,35,35,35,35,35,35,35,35,2,0,
0,2,35,35,35,35,35,35,35,35,35,35,35,35,35,35,35,35,35,35,35,35,35,35,35,35,35,35,2,0,
0,2,35,35,35,35,35,35,35,35,4,1,1,1,1,1,1,1,1,5,35,35,35,35,35,35,35,35,2,0,
0,2,35,35,35,35,35,35,35,35,2,71,72,73,74,75,76,77,78,2,35,35,35,35,35,35,35,35,2,0,
0,2,35,35,35,35,35,35,35,35,2,81,82,83,84,85,81,81,81,2,35,35,35,35,35,35,35,35,2,0,
0,2,35,35,35,35,35,35,35,35,2,91,92,92,92,92,92,92,93,2,35,35,35,35,35,35,35,35,2,0,
0,2,35,35,35,35,35,35,35,35,2,0,0,0,0,0,0,0,0,2,35,35,35,35,35,35,35,35,2,0,
0,2,29,29,29,29,29,29,29,29,2,0,0,0,0,0,0,0,0,2,29,29,29,29,29,29,29,29,2,0,
0,2,29,29,29,29,29,29,29,29,2,0,0,0,0,0,0,0,0,2,29,29,29,29,29,29,29,29,2,0,
0,2,29,29,29,29,29,29,29,29,2,0,0,0,0,0,0,0,0,2,29,29,29,29,29,29,29,29,2,0,
0,2,26,24,26,26,26,26,26,26,2,0,0,0,0,0,0,0,0,2,26,26,26,26,26,26,24,26,2,0,
0,2,26,26,26,26,26,26,26,26,6,1,1,1,1,1,1,1,1,7,26,26,26,26,26,26,26,26,2,0,
0,2,26,26,26,26,26,26,26,26,13,12,13,13,13,11,13,13,12,13,26,26,26,26,26,26,26,26,2,0,
0,2,26,26,26,26,26,26,26,26,23,23,23,23,23,23,23,23,23,23,26,26,26,26,26,26,26,26,2,0,
0,2,26,26,26,26,26,26,26,26,26,26,26,26,26,26,26,26,26,26,26,26,26,26,26,26,26,26,2,0,
0,2,26,26,26,26,26,26,26,26,26,26,26,26,26,26,26,26,26,26,26,26,26,26,26,26,26,26,2,0,
0,2,26,24,26,26,26,26,26,26,26,26,26,26,26,26,26,26,26,26,26,26,26,26,26,26,24,26,2,0,
0,2,26,26,26,26,26,26,26,26,26,26,26,26,26,26,26,26,26,26,26,26,26,26,26,26,26,26,2,0,
0,6,1,1,1,1,1,1,1,1,1,1,1,1,1,1,1,1,1,1,1,1,1,1,1,1,1,1,7,0,
0,71,72,73,74,75,76,77,78,79,80,96,71,72,73,74,77,77,76,77,71,72,73,74,75,77,77,78,77,0,
0,81,82,83,84,85,86,87,88,89,90,94,81,82,83,84,85,81,81,81,81,82,83,84,85,81,81,81,81,0,
0,0,0,0,0,0,0,0,0,0,0,0,0,0,0,0,0,0,0,0,0,0,0,0,0,0,0,0,0,0
</data>
 </layer>
 <layer id="2" name="Objects" width="30" height="30">
  <data encoding="csv">
0,0,0,0,0,0,0,0,0,0,0,0,0,0,0,0,0,0,0,0,0,0,0,0,0,0,0,0,0,0,
0,0,0,0,0,0,0,0,0,0,0,0,0,0,0,0,0,0,0,0,0,0,0,0,0,0,0,0,0,0,
0,0,1240,1241,0,0,0,0,445,0,819,820,821,822,823,0,0,0,0,0,0,0,0,0,0,0,0,0,0,0,
0,0,1282,1283,0,0,0,0,0,0,861,862,863,864,865,0,0,0,0,0,615,616,617,0,0,0,0,0,0,0,
0,0,1324,1325,0,0,0,0,0,0,903,0,0,0,0,0,0,0,0,0,657,658,659,0,0,0,0,0,0,0,
0,0,0,0,0,0,0,0,0,0,0,0,0,0,0,0,0,0,0,0,699,700,701,0,0,744,745,746,0,0,
0,0,0,0,0,0,0,0,0,0,0,0,0,0,0,0,0,0,0,0,0,0,0,0,0,786,787,788,0,0,
0,0,446,447,0,232,0,0,0,0,0,0,0,0,0,0,0,0,0,0,0,0,0,0,0,0,0,0,0,0,
0,0,488,489,273,274,275,0,0,0,0,0,0,0,946,947,948,949,0,0,0,0,0,0,0,0,0,0,0,0,
0,0,0,1079,315,316,317,1079,0,0,0,0,0,0,988,989,990,991,0,0,0,0,407,446,447,0,448,0,0,0,
0,0,0,0,0,0,1079,0,0,0,0,0,0,0,0,0,0,0,0,0,0,406,407,488,489,0,406,407,0,0,
0,0,0,0,0,0,0,0,0,0,0,0,0,0,0,0,0,0,0,0,0,448,0,0,0,0,0,448,0,0,
0,0,0,0,0,0,0,0,0,0,0,0,0,0,0,0,0,0,0,0,0,0,0,0,0,0,0,0,0,0,
0,0,0,0,0,0,0,0,0,0,0,0,0,0,0,0,0,0,0,0,0,0,0,0,0,0,0,0,0,0,
0,0,0,0,0,0,0,0,0,0,0,0,0,0,0,0,0,0,0,0,0,0,0,0,0,0,0,0,0,0,
0,0,0,0,0,0,0,0,0,0,0,0,0,0,0,0,0,0,0,0,0,0,0,0,0,0,0,0,0,0,
0,0,0,0,0,0,0,0,0,0,0,0,0,0,0,0,0,0,0,0,0,0,0,0,0,0,0,0,0,0,
0,0,0,0,0,0,0,0,0,0,0,0,0,0,0,0,0,0,0,0,0,0,0,0,0,0,0,0,0,0,
0,0,0,0,0,0,0,0,0,0,0,0,0,0,0,0,0,0,0,0,0,0,0,0,0,0,1172,1173,0,0,
0,0,1254,1255,1256,0,0,0,0,0,0,0,0,0,0,0,0,0,0,0,0,0,0,0,0,0,1214,1215,0,0,
0,0,1296,1297,1298,0,0,0,0,0,0,0,442,443,0,0,0,0,0,0,0,0,0,0,0,0,0,0,0,0,
0,0,0,0,0,0,0,0,0,0,0,487,484,485,0,0,0,0,0,0,0,0,0,0,0,0,0,0,0,0,
0,0,0,0,0,0,0,0,0,0,0,487,526,527,0,0,0,0,0,0,0,0,0,1122,1123,0,0,0,0,0,
0,0,0,0,961,962,963,0,0,0,0,0,0,0,0,0,696,697,698,0,0,0,0,1164,1165,0,0,0,0,0,
0,0,0,0,1003,1004,1005,0,0,0,0,0,0,0,0,0,738,739,740,0,0,0,0,0,0,0,0,0,0,0,
0,0,0,0,0,0,0,0,0,0,0,0,0,0,0,0,0,0,0,0,0,0,0,0,0,0,0,0,0,0,
0,0,0,0,0,0,0,0,0,0,0,0,0,0,0,0,0,0,0,0,0,0,0,0,0,0,0,0,0,0,
0,0,0,0,0,0,0,0,0,0,0,0,0,0,0,0,0,0,0,0,0,0,0,0,0,0,0,0,0,0,
0,0,0,0,0,0,0,0,0,0,0,0,0,0,0,0,0,0,0,0,0,0,0,0,0,0,0,0,0,0,
0,0,0,0,0,0,0,0,0,0,0,0,0,0,0,0,0,0,0,0,0,0,0,0,0,0,0,0,0,0
</data>
 </layer>
 <layer id="3" name="Blood and shadows" width="30" height="30">
  <data encoding="csv">
1557,1570,1569,1568,1609,1556,1609,1607,1559,1611,1556,1612,1569,1608,1554,1557,1605,1568,1556,1608,1562,1559,1554,1605,1559,1610,1570,1564,1597,1598,
1563,0,0,0,0,0,0,0,0,0,0,0,0,0,0,0,0,0,0,0,0,0,0,0,0,0,0,0,0,1607,
1555,0,2592,0,0,0,0,0,0,2118,0,0,0,0,0,0,0,0,0,0,0,0,0,0,0,0,0,0,0,1611,
1599,0,2592,0,0,0,0,0,0,0,0,0,0,0,0,0,0,0,0,0,0,0,0,0,0,0,0,0,0,1565,
1612,0,2592,0,0,0,0,0,0,0,0,0,0,0,0,0,0,0,0,0,0,0,0,2095,0,0,0,0,0,1610,
1568,0,2592,0,0,0,0,0,0,0,0,0,0,0,0,0,0,0,0,0,0,0,0,2137,0,0,0,0,0,1599,
1564,0,2592,0,0,0,0,0,0,0,0,0,0,0,0,0,0,0,0,0,0,0,0,0,0,0,0,0,0,1561,
1605,0,2592,0,0,0,0,0,0,0,0,0,0,0,0,0,0,0,0,0,0,0,0,0,0,0,0,0,0,1609,
1558,0,2592,0,0,0,0,0,0,0,0,0,0,0,0,0,0,0,0,0,0,0,0,0,0,0,0,0,0,1556,
1565,0,2592,0,0,0,0,0,0,0,0,0,0,0,0,0,0,0,0,0,0,0,0,0,0,0,0,0,0,1603,
1598,0,2592,0,0,0,0,0,2095,0,0,0,0,0,0,0,0,0,0,0,2592,0,0,0,0,0,0,0,0,1611,
1557,0,2592,0,0,0,0,0,2137,0,0,0,0,0,0,0,0,0,0,0,2592,0,0,0,0,0,0,0,0,1600,
1602,0,2592,0,0,0,0,0,0,0,0,0,0,0,0,0,0,0,0,0,2592,0,0,0,0,0,0,0,0,1601,
1607,0,2592,0,0,0,0,0,0,0,0,0,0,0,0,0,0,0,0,0,2592,0,0,0,0,0,0,0,0,1559,
1564,0,2592,0,2497,0,0,0,0,0,0,1569,1612,1601,1600,1604,1605,1554,1597,0,2592,0,0,0,0,0,0,0,0,1596,
1610,0,2592,0,2539,2540,2541,0,0,0,0,1561,1563,1560,1604,0,0,1570,1567,0,2592,0,0,0,0,0,0,0,0,1557,
1609,0,2592,0,2581,2582,2583,0,0,0,0,1568,0,0,1598,1563,1606,1602,0,0,2592,0,0,0,0,0,0,0,0,1607,
1602,0,2592,0,2623,2624,2625,0,0,0,0,1569,1609,1569,1600,0,1607,1609,1555,0,2592,0,0,0,0,0,0,0,0,1557,
1569,0,2592,0,0,0,0,0,0,0,0,1557,1557,1596,1567,1566,1561,1603,1599,0,2592,0,0,0,0,0,0,0,0,1610,
1610,0,2592,0,1868,0,0,0,0,0,0,0,0,0,0,0,0,0,0,0,2592,0,2169,2170,0,0,0,0,0,1567,
1609,0,2592,0,0,0,0,0,0,0,0,0,0,0,0,0,0,0,0,2095,2592,0,0,2212,0,0,0,0,0,1601,
1610,0,2592,0,0,0,0,0,0,2118,0,0,0,0,0,0,0,0,0,2137,0,0,0,2254,0,0,0,0,0,1612,
1609,0,2592,0,0,0,0,2118,0,0,0,0,0,0,0,0,0,0,0,0,0,0,0,0,0,0,0,0,0,1609,
1611,0,2592,0,0,0,0,0,0,0,0,0,0,0,0,0,0,0,0,0,0,0,0,0,0,0,0,0,0,1555,
1567,0,2592,0,0,0,0,0,0,0,0,0,0,0,0,0,0,0,0,0,0,0,0,0,0,0,0,0,0,1597,
1559,0,2592,0,0,0,0,0,0,0,0,0,0,0,0,0,0,0,0,0,0,0,0,0,0,0,0,0,0,1560,
1561,0,0,0,0,0,0,0,0,0,0,0,0,0,0,0,0,0,0,0,0,0,0,0,0,0,0,0,0,1565,
1568,0,0,0,0,0,0,0,0,0,0,0,0,0,0,0,0,0,0,0,0,0,0,0,0,0,0,0,0,1566,
1562,0,0,0,0,0,0,0,0,0,0,0,0,0,0,0,0,0,0,0,0,0,0,0,0,0,0,0,0,1566,
1597,1555,1559,1598,1600,1554,1560,1609,1605,1604,1562,1612,1558,1607,1570,1561,1600,1569,1608,1569,1605,1609,1555,1566,1570,1601,1567,1609,1558,1555
</data>
 </layer>
 <layer id="4" name="Units" width="30" height="30">
  <data encoding="csv">
0,0,0,0,0,0,0,0,0,0,0,0,0,0,0,0,0,0,0,0,0,0,0,0,0,0,0,0,0,0,
0,0,0,0,0,0,0,0,0,0,0,0,0,0,0,0,0,0,0,0,0,0,0,0,0,0,0,0,0,0,
0,0,0,0,0,0,0,0,0,0,0,0,0,0,0,0,0,0,0,0,0,0,0,0,0,0,0,0,0,0,
0,0,0,0,0,0,0,0,0,0,0,0,0,0,0,0,0,0,0,0,0,0,0,0,0,0,0,0,0,0,
0,0,0,0,0,0,0,0,0,0,0,0,0,0,0,0,0,0,0,0,0,0,0,0,0,0,0,0,0,0,
0,0,0,0,0,0,0,0,0,0,0,0,0,0,0,2962,0,0,0,0,0,0,0,0,0,0,0,0,0,0,
0,0,0,0,0,0,0,0,0,0,0,0,0,0,0,0,0,0,0,0,0,0,0,0,0,0,0,0,0,0,
0,0,0,0,0,0,0,0,0,0,0,0,0,0,0,0,0,0,0,0,0,0,0,0,0,0,0,0,0,0,
0,0,0,0,0,0,0,0,2962,0,0,0,0,0,0,0,0,0,0,0,0,0,0,0,2962,0,0,0,0,0,
0,0,0,0,0,0,0,0,0,0,0,0,0,0,0,0,0,0,0,0,0,0,0,0,0,0,0,0,0,0,
0,0,0,2961,0,2961,0,2961,0,2961,0,0,0,0,0,0,0,0,0,0,0,2961,0,2961,0,2961,0,2961,0,0,
0,0,0,0,0,0,0,0,0,0,0,0,0,0,0,0,0,0,0,0,0,0,0,0,0,0,0,0,0,0,
0,0,2960,0,2960,0,2960,0,2960,0,0,0,0,0,0,0,0,0,0,0,2960,0,2960,0,2960,0,2960,0,0,0,
0,0,0,0,0,0,0,0,0,0,0,0,0,0,0,0,0,0,0,0,0,0,0,0,0,0,0,0,0,0,
0,0,0,0,0,0,0,0,0,0,0,0,0,0,0,0,0,0,0,0,0,0,0,0,0,0,0,0,0,0,
0,0,0,0,0,0,0,0,0,0,0,0,0,0,0,0,0,0,0,0,0,0,0,0,0,0,0,0,0,0,
0,0,0,0,0,0,0,0,0,0,0,0,0,0,0,0,0,0,0,0,0,0,0,0,0,0,0,0,0,0,
0,0,0,0,0,0,0,0,0,0,0,0,0,0,0,0,0,0,0,0,0,0,0,0,0,0,0,0,0,0,
0,0,0,0,0,0,0,0,0,0,0,0,0,0,0,0,0,0,0,0,0,0,0,0,0,0,0,0,0,0,
0,0,0,0,0,0,0,0,0,0,0,0,0,0,0,0,0,0,0,0,0,0,0,0,0,0,0,0,0,0,
0,0,0,2957,0,0,2957,0,2957,0,0,0,0,0,0,0,0,0,0,0,0,2957,0,2957,0,0,2957,0,0,0,
0,0,0,0,0,0,0,0,0,0,0,0,0,0,0,0,0,0,0,0,0,0,0,0,0,0,0,0,0,0,
0,0,0,0,2958,0,2958,0,2958,0,2958,0,0,0,0,0,0,0,0,0,2958,0,2958,0,2958,0,2958,0,0,0,
0,0,0,0,0,0,0,0,0,0,0,0,0,0,0,0,0,0,0,0,0,0,0,0,0,0,0,0,0,0,
0,0,0,0,0,0,2959,0,0,0,0,0,0,0,0,0,0,0,0,0,0,0,2959,0,0,0,0,0,0,0,
0,0,0,0,0,0,0,0,0,0,0,0,0,0,0,0,0,0,0,0,0,0,0,0,0,0,0,0,0,0,
0,0,0,0,0,0,0,0,0,0,0,0,0,0,0,0,0,0,0,0,0,0,0,0,0,0,0,0,0,0,
0,0,0,0,0,0,0,0,0,0,0,0,0,0,0,0,0,0,0,0,0,0,0,0,0,0,0,0,0,0,
0,0,0,0,0,0,0,0,0,0,0,0,0,0,0,0,0,0,0,0,0,0,0,0,0,0,0,0,0,0,
0,0,0,0,0,0,0,0,0,0,0,0,0,0,0,0,0,0,0,0,0,0,0,0,0,0,0,0,0,0
</data>
 </layer>
</map>
